!!!OTL: Cindy
!!!ARE: United States of America
!!!AMD: Pentatonic
**kern
*clefG2
*k[f#]
*M2/4
*MM120
{8dd\
=2
8ee\L
8dd\J
8dd\L
8b\J
=3
8a/
4g/}
{8dd\
=4
8ee\L
8dd\J
8b\L
8dd\J
=5
4.a/}
{8dd\
=6
8ee\L
8dd\J
8dd\L
8b\J
=7
8a/L
8g/J
4g/
=8
8b/L
8a/J
8g/L
8e/J
=9
4g/}
=||
!!refrain
{16g/LL
16g/J
8g/J
=10
4e/
8.e/L
16d/Jk
=11
8e/L
8g/J}
{16g/LL
16g/J
8g/J
=12
4d/
8.d/L
16d/Jk
=13
8B/L
8d/J}
{16g/LL
16g/J
8g/J
=14
4e/
8.e/L
16d/Jk
=15
8e/
4g/}
{8a/
=16
8b/L
8b/J
8b/L
8a/J
=17
4.g/}
==
*-
